resources/svg/bug.svg

<svg xmlns="http://www.w3.org/2000/svg" viewBox="0 0 24 24" fill="currentColor"><path fill="none" stroke="currentColor" stroke-width="2" d="M23,20 C21.62,17.91 20,17 19,17 M5,17 C4,17 2.38,17.91 1,20 M19,9 C22,9 23,6 23,6 M1,6 C1,6 2,9 5,9 M19,13 L24,13 L19,13 Z M5,13 L0,13 L5,13 Z M12,23 L12,12 L12,23 L12,23 Z M12,23 C8,22.9999998 5,20.0000002 5,16 L5,9 C5,9 8,6.988 12,7 C16,7.012 19,9 19,9 C19,9 19,11.9999998 19,16 C19,20.0000002 16,23.0000002 12,23 L12,23 Z M7,8 L7,6 C7,3.24 9.24,1 12,1 C14.76,1 17,3.24 17,6 L17,8"/></svg>

<svg viewBox="0 0 24 24"><path fill="none" stroke="currentColor" stroke-width="2" d="M23 20c-1.38-2.09-3-3-4-3M5 17c-1 0-2.62.91-4 3M19 9c3 0 4-3 4-3M1 6s1 3 4 3m14 4h5h-5zM5 13H0h5zm7 10V12v11h0zm0 0c-4 0-7-3-7-7V9s3-2.012 7-2c4 .012 7 2 7 2v7c0 4-3 7-7 7h0zM7 8V6c0-2.76 2.24-5 5-5s5 2.24 5 5v2"/></svg>
